svg/u1f477_1f3fd.svg

<svg viewBox="0 0 128 128" xmlns="http://www.w3.org/2000/svg" xmlns:xlink="http://www.w3.org/1999/xlink">
  <g id="hairGroup_3_">
    <path id="hair_4_" d="M98.54,79.48c-1.28-2.3,0.24-4.63,2.84-7.5c4.12-4.54,8.41-14.96,3.88-25.4 c0.02-0.06-0.88-1.8-0.86-1.86l-1.74-0.09c-0.56-0.08-19.6-0.12-38.67-0.12s-38.11,0.04-38.67,0.12c0,0-2.62,1.89-2.59,1.95 c-4.53,10.44-0.24,20.86,3.88,25.4c2.61,2.87,4.12,5.2,2.84,7.5c-1.25,2.24-4.83,2.57-4.83,2.57s0.77,2.3,2.73,3.54 c1.82,1.15,4.07,1.42,5.64,1.46c0,0,5.98,8.75,22.05,8.75l8.95,0l8.95,0c16.08,0,22.05-8.75,22.05-8.75 c1.57-0.04,3.82-0.31,5.64-1.46c1.96-1.24,2.73-3.54,2.73-3.54S99.78,81.72,98.54,79.48z" fill="#543930"/>
    <g id="hairHighlights_2_">
      <radialGradient id="SVGID_1_" cx="99.7195" cy="45.1672" gradientTransform="matrix(1 0 0 0.4912 -21.218 59.6105)" gradientUnits="userSpaceOnUse" r="23.6349">
        <stop offset="0.7275" stop-color="#6D4C41" stop-opacity="0"/>
        <stop offset="1" stop-color="#6D4C41"/>
      </radialGradient>
      <path d="M63.99,95.79v-9.7l28.35-2.31l2.64,3.26c0,0-5.98,8.75-22.05,8.75L63.99,95.79z" fill="url(#SVGID_1_)"/>
      <radialGradient id="SVGID_2_" cx="78.3944" cy="52.4869" gradientTransform="matrix(-0.9057 0.4238 -0.3144 -0.6719 188.8154 80.3447)" gradientUnits="userSpaceOnUse" r="6.9346">
        <stop offset="0.6628" stop-color="#6D4C41"/>
        <stop offset="1" stop-color="#6D4C41" stop-opacity="0"/>
      </radialGradient>
      <path d="M94.84,82.84c-4.36-6.58,4.96-9.02,4.96-9.02s0.01,0.01,0.01,0.01 c-1.58,2.07-2.28,3.87-1.29,5.66c1.25,2.24,4.83,2.57,4.83,2.57S98.59,86.49,94.84,82.84z" fill="url(#SVGID_2_)"/>
      <radialGradient id="SVGID_3_" cx="97.1595" cy="68.9927" gradientTransform="matrix(-0.0746 -0.9972 0.8311 -0.0622 33.0446 160.0806)" gradientUnits="userSpaceOnUse" r="30.0464">
        <stop offset="0.7247" stop-color="#6D4C41" stop-opacity="0"/>
        <stop offset="1" stop-color="#6D4C41"/>
      </radialGradient>
      <path d="M105.28,46.58c4.42,10.11,0.34,20.66-3.66,25.15c-0.55,0.62-2.9,3.02-3.4,4.95 c0,0-9.64-13.31-12.54-21.02c-0.58-1.55-1.11-3.14-1.2-4.78c-0.07-1.23,0.1-2.68,0.79-3.72c0.84-1.27,19.49-1.65,19.49-1.65 C104.76,45.52,105.28,46.58,105.28,46.58z" fill="url(#SVGID_3_)"/>
      <radialGradient id="SVGID_4_" cx="46.8107" cy="71.3857" gradientTransform="matrix(0.0746 -0.9972 -0.8311 -0.0622 100.7228 110.021)" gradientUnits="userSpaceOnUse" r="30.0464">
        <stop offset="0.7247" stop-color="#6D4C41" stop-opacity="0"/>
        <stop offset="1" stop-color="#6D4C41"/>
      </radialGradient>
      <path d="M22.74,46.58c-4.42,10.11-0.34,20.66,3.66,25.15c0.55,0.62,2.9,3.02,3.4,4.95 c0,0,9.64-13.31,12.54-21.02c0.58-1.55,1.11-3.14,1.2-4.78c0.07-1.23-0.1-2.68-0.79-3.72c-0.84-1.27-1.85-0.93-3.32-0.93 c-2.79,0-14.98-0.71-15.93-0.71C23.51,45.52,22.74,46.58,22.74,46.58z" fill="url(#SVGID_4_)"/>
      <radialGradient id="SVGID_5_" cx="51.5205" cy="45.1672" gradientTransform="matrix(-1 0 0 0.4912 101.0411 59.6105)" gradientUnits="userSpaceOnUse" r="23.635">
        <stop offset="0.7275" stop-color="#6D4C41" stop-opacity="0"/>
        <stop offset="1" stop-color="#6D4C41"/>
      </radialGradient>
      <path d="M64.03,95.79v-9.7l-28.35-2.31l-2.64,3.26c0,0,5.98,8.75,22.05,8.75L64.03,95.79z" fill="url(#SVGID_5_)"/>
      <radialGradient id="SVGID_6_" cx="26.3838" cy="51.3443" gradientTransform="matrix(0.9057 0.4238 0.3144 -0.6719 -13.3258 101.62)" gradientUnits="userSpaceOnUse" r="6.9345">
        <stop offset="0.6628" stop-color="#6D4C41"/>
        <stop offset="1" stop-color="#6D4C41" stop-opacity="0"/>
      </radialGradient>
      <path d="M33.18,82.84c4.36-6.58-4.96-9.02-4.96-9.02s-0.01,0.01-0.01,0.01 c1.58,2.07,2.28,3.87,1.29,5.66c-1.25,2.24-4.83,2.57-4.83,2.57S29.43,86.49,33.18,82.84z" fill="url(#SVGID_6_)"/>
    </g>
  </g>
  <g id="shirt_1_">
    <linearGradient id="SVGID_7_" gradientTransform="matrix(1 0 0 -1 0 130)" gradientUnits="userSpaceOnUse" x1="64" x2="64" y1="34.2191" y2="-7.5978">
      <stop offset="3.200000e-03" stop-color="#448AFF"/>
      <stop offset="0.4042" stop-color="#3B7DFF"/>
      <stop offset="1" stop-color="#2962FF"/>
    </linearGradient>
    <path d="M116,123.96v-3.12c0-16.78-26.35-25.09-52-25.06c-25.49,0.03-52,7.28-52,25.06v3.12H116z" fill="url(#SVGID_7_)"/>
  </g>
  <g id="neck_2_">
    <path id="neck" d="M64,90.11h-9.08v9.98c0,4.51,3.7,8.17,8.26,8.17h1.65c4.56,0,8.26-3.66,8.26-8.17v-9.98 C73.08,90.11,64,90.11,64,90.11z" fill="#99674F"/>
  </g>
  <g id="safety_x5F_jacket_1_">
    <g>
      <g>
        <linearGradient id="SVGID_8_" gradientTransform="matrix(1 0 0 -1 0 130)" gradientUnits="userSpaceOnUse" x1="44.025" x2="44.025" y1="31.8482" y2="-5.8708">
          <stop offset="3.200000e-03" stop-color="#FF9100"/>
          <stop offset="0.4399" stop-color="#FF8400"/>
          <stop offset="1" stop-color="#FF6D00"/>
        </linearGradient>
        <path d="M58.5,123.96H29.55v-22.74c1.79-0.7,3.68-1.32,5.64-1.86c2.89-0.82,5.94-1.49,9.1-2.01 c2.14-0.36,4.33-0.65,6.55-0.88L58.5,123.96z" fill="url(#SVGID_8_)"/>
      </g>
      <linearGradient id="SVGID_9_" gradientTransform="matrix(1 0 0 -1 0 130)" gradientUnits="userSpaceOnUse" x1="43.075" x2="43.075" y1="32.056" y2="-6.655">
        <stop offset="3.200000e-03" stop-color="#FFFF00"/>
        <stop offset="0.6783" stop-color="#FFF200"/>
        <stop offset="1" stop-color="#FFEA00"/>
      </linearGradient>
      <path d="M50.96,123.96H36.29l-1.1-24.6c2.89-0.82,5.94-1.49,9.1-2.01L50.96,123.96z" fill="url(#SVGID_9_)"/>
    </g>
    <g>
      <g>
        <linearGradient id="SVGID_10_" gradientTransform="matrix(1 0 0 -1 0 130)" gradientUnits="userSpaceOnUse" x1="83.975" x2="83.975" y1="31.8106" y2="-5.8534">
          <stop offset="3.200000e-03" stop-color="#FF9100"/>
          <stop offset="0.4399" stop-color="#FF8400"/>
          <stop offset="1" stop-color="#FF6D00"/>
        </linearGradient>
        <path d="M98.45,101.52v22.44H69.5l7.65-27.45c2.21,0.24,4.4,0.56,6.53,0.94 c3.17,0.57,6.23,1.27,9.12,2.13C94.77,100.16,96.66,100.81,98.45,101.52z" fill="url(#SVGID_10_)"/>
      </g>
      <linearGradient id="SVGID_11_" gradientTransform="matrix(1 0 0 -1 0 130)" gradientUnits="userSpaceOnUse" x1="84.92" x2="84.92" y1="31.9582" y2="-6.6073">
        <stop offset="3.200000e-03" stop-color="#FFFF00"/>
        <stop offset="0.6783" stop-color="#FFF200"/>
        <stop offset="1" stop-color="#FFEA00"/>
      </linearGradient>
      <path d="M92.8,99.58l-1.09,24.38H77.04l6.64-26.51C86.85,98.02,89.91,98.72,92.8,99.58z" fill="url(#SVGID_11_)"/>
    </g>
  </g>
  <g id="ears_1_">
    <path id="ears" d="M91.33,50.43h-7.37H44.04h-7.37c-5.89,0-10.71,5.14-10.71,11.41s4.82,11.41,10.71,11.41 h7.37h39.91h7.37c5.89,0,10.71-5.14,10.71-11.41S97.22,50.43,91.33,50.43z" fill="#99674F"/>
  </g>
  <path id="head_2_" d="M64,11.11c-17.4,0-33.52,18.61-33.52,45.39c0,26.64,16.61,39.81,33.52,39.81 S97.52,83.14,97.52,56.5C97.52,29.72,81.4,11.11,64,11.11z" fill="#BA8D68"/>
  <g id="eyes_2_">
    <ellipse cx="48.4" cy="58.81" fill="#49362E" rx="4.93" ry="5.1"/>
    <ellipse cx="79.6" cy="58.81" fill="#49362E" rx="4.93" ry="5.1"/>
  </g>
  <g id="eyebrow_1_">
    <path d="M55.64,49.82c-0.93-1.23-3.07-3.01-7.23-3.01s-6.31,1.79-7.23,3.01c-0.41,0.54-0.31,1.17-0.02,1.55 c0.26,0.35,1.04,0.68,1.9,0.39s2.54-1.16,5.35-1.18c2.81,0.02,4.49,0.89,5.35,1.18c0.86,0.29,1.64-0.03,1.9-0.39 C55.94,50.99,56.05,50.36,55.64,49.82z" fill="#613E31"/>
    <path d="M86.83,49.82c-0.93-1.23-3.07-3.01-7.23-3.01c-4.16,0-6.31,1.79-7.23,3.01 c-0.41,0.54-0.31,1.17-0.02,1.55c0.26,0.35,1.04,0.68,1.9,0.39s2.54-1.16,5.35-1.18c2.81,0.02,4.49,0.89,5.35,1.18 c0.86,0.29,1.64-0.03,1.9-0.39C87.13,50.99,87.24,50.36,86.83,49.82z" fill="#613E31"/>
  </g>
  <path id="nose_2_" d="M67.86,68.06c-0.11-0.04-0.21-0.07-0.32-0.08h-7.08c-0.11,0.01-0.22,0.04-0.32,0.08 c-0.64,0.26-0.99,0.92-0.69,1.63c0.3,0.71,1.71,2.69,4.55,2.69s4.25-1.99,4.55-2.69C68.85,68.98,68.5,68.32,67.86,68.06z" fill="#99674F"/>
  <path id="mouth_2_" d="M72.42,76.14c-3.18,1.89-13.63,1.89-16.81,0c-1.83-1.09-3.7,0.58-2.94,2.24 c0.75,1.63,6.44,5.42,11.37,5.42s10.55-3.79,11.3-5.42C76.09,76.72,74.25,75.05,72.42,76.14z" fill="#5D4037"/>
  <g id="hairGroup_2_">
    <path id="hair_1_" d="M64,11.07c-37.26,0-34.74,41.41-34.74,41.41c-0.46,8.01,1.03,12.94,1.82,14.93 c0.14,0.35,0.63,0.32,0.72-0.04c0.99-3.97,4.36-17.8,4.03-20.21c0,0,11.35-2.25,22.17-10.22c2.2-1.62,4.59-3,7.13-4.01 c13.59-5.41,16.43,3.82,16.43,3.82s9.42-1.81,12.26,11.27c1.07,4.9,1.79,12.75,2.4,18.24c0.04,0.39,0.57,0.47,0.72,0.11 c0.95-2.18,3.1-6.48,3.3-10.91C100.93,40.68,92.18,11.07,64,11.07z" fill="#543930"/>
  </g>
  <g id="helmet_2_">
    <radialGradient id="XMLID_3_" cx="64" cy="98.3439" gradientTransform="matrix(1 0 0 -0.9806 0 127.575)" gradientUnits="userSpaceOnUse" r="34.638">
      <stop offset="0" stop-color="#FFFF00"/>
      <stop offset="0.325" stop-color="#FFF600"/>
      <stop offset="0.8535" stop-color="#FFDE00"/>
      <stop offset="0.9978" stop-color="#FFD600"/>
    </radialGradient>
    <path id="XMLID_4_" d="M64.41,7.92c-46.76,0-43.24,46.43-43.24,46.43s12.21-10.8,43.5-10.8 s42.1,9.8,42.1,9.8S111.17,7.92,64.41,7.92z" fill="url(#XMLID_3_)"/>
    <linearGradient id="SVGID_12_" gradientTransform="matrix(1 0 0 -1 0 130)" gradientUnits="userSpaceOnUse" x1="64.3215" x2="64.3215" y1="125.2646" y2="88.227">
      <stop offset="0" stop-color="#FFFF00"/>
      <stop offset="0.4462" stop-color="#FFF900"/>
      <stop offset="1" stop-color="#FFEA00"/>
    </linearGradient>
    <path d="M74.72,42.15h-20.8V9.05c0-2.79,2.26-5.05,5.05-5.05h10.7c2.79,0,5.05,2.26,5.05,5.05V42.15 z" fill="url(#SVGID_12_)"/>
    <g>
      <g>
        <defs>
          <path id="SVGID_13_" d="M64.41,7.92c-46.76,0-43.24,46.43-43.24,46.43s12.21-10.8,43.5-10.8s42.1,9.8,42.1,9.8 S111.17,7.92,64.41,7.92z"/>
        </defs>
        <clipPath id="SVGID_14_">
          <use overflow="visible" xlink:href="#SVGID_13_"/>
        </clipPath>
        <path id="XMLID_1_" clip-path="url(#SVGID_14_)" d="M47.12,10.23 l6.95-2.3v23.29C52.66,21.15,50.64,13.87,47.12,10.23z" enable-background="new " fill="#EDBF00" opacity="0.5"/>
      </g>
      <g>
        <defs>
          <path id="SVGID_15_" d="M64.41,7.92c-46.76,0-43.24,46.43-43.24,46.43s12.21-10.8,43.5-10.8s42.1,9.8,42.1,9.8 S111.17,7.92,64.41,7.92z"/>
        </defs>
        <clipPath id="SVGID_16_">
          <use overflow="visible" xlink:href="#SVGID_15_"/>
        </clipPath>
        <path clip-path="url(#SVGID_16_)" d="M81.71,10.23l-6.95-2.3v23.29 C76.17,21.15,78.19,13.87,81.71,10.23z" enable-background="new " fill="#EDBF00" opacity="0.5"/>
      </g>
    </g>
    <path d="M109.53,50.99c-0.25-0.42-0.64-0.74-1.07-0.99C90.36,39.58,64,39.93,64,39.93S37.64,39.58,19.54,50 c-0.44,0.25-0.82,0.57-1.07,0.99c-0.53,0.9-0.97,2.61,0.75,5.08c0,0,10.95-10.85,44.78-11.53c33.82,0.69,44.78,11.53,44.78,11.53 C110.5,53.6,110.06,51.89,109.53,50.99z" fill="#FFEA00"/>
  </g>
</svg>

<svg viewBox="0 0 128 128" xmlns="http://www.w3.org/2000/svg">
  <defs>
    <linearGradient id="SVGID_7_" gradientTransform="matrix(1 0 0 -1 0 0)" gradientUnits="userSpaceOnUse" x1="64" x2="64" y1="-95.7809" y2="-137.5978">
      <stop offset="3.200000e-03" stop-color="#448AFF"/>
      <stop offset="0.4042" stop-color="#3B7DFF"/>
      <stop offset="1" stop-color="#2962FF"/>
    </linearGradient>
    <radialGradient id="XMLID_3_" cx="64" cy="-31.755019" gradientTransform="matrix(1 0 0 -0.9806 0 0)" gradientUnits="userSpaceOnUse" r="34.638">
      <stop offset="0" stop-color="#FFFF00"/>
      <stop offset="0.325" stop-color="#FFF600"/>
      <stop offset="0.8535" stop-color="#FFDE00"/>
      <stop offset="0.9978" stop-color="#FFD600"/>
    </radialGradient>
    <linearGradient id="SVGID_12_" gradientTransform="matrix(1 0 0 -1 0 0)" gradientUnits="userSpaceOnUse" x1="64.3215" x2="64.3215" y1="-4.7354" y2="-41.773">
      <stop offset="0" stop-color="#FFFF00"/>
      <stop offset="0.4462" stop-color="#FFF900"/>
      <stop offset="1" stop-color="#FFEA00"/>
    </linearGradient>
    <radialGradient id="SVGID_1_" cx="78.5015" cy="166.524081" gradientTransform="matrix(1 0 0 0.4912 0 0)" gradientUnits="userSpaceOnUse" r="23.6349">
      <stop offset="0.7275" stop-color="#6D4C41" stop-opacity="0"/>
      <stop offset="1" stop-color="#6D4C41"/>
    </radialGradient>
    <radialGradient id="SVGID_2_" cx="-58.579291" cy="-153.487427" gradientTransform="matrix(-0.9057 0.4238 -0.3144 -0.6719 0 0)" gradientUnits="userSpaceOnUse" r="6.9346">
      <stop offset="0.6628" stop-color="#6D4C41"/>
      <stop offset="1" stop-color="#6D4C41" stop-opacity="0"/>
    </radialGradient>
    <radialGradient id="SVGID_3_" cx="-64.943028" cy="94.202364" gradientTransform="matrix(-0.0746 -0.9972 0.8311 -0.0622 0 0)" gradientUnits="userSpaceOnUse" r="30.0464">
      <stop offset="0.7247" stop-color="#6D4C41" stop-opacity="0"/>
      <stop offset="1" stop-color="#6D4C41"/>
    </radialGradient>
    <radialGradient id="SVGID_4_" cx="-55.387719" cy="-58.979842" gradientTransform="matrix(0.0746 -0.9972 -0.8311 -0.0622 0 0)" gradientUnits="userSpaceOnUse" r="30.0464">
      <stop offset="0.7247" stop-color="#6D4C41" stop-opacity="0"/>
      <stop offset="1" stop-color="#6D4C41"/>
    </radialGradient>
    <radialGradient id="SVGID_5_" cx="-49.5206" cy="166.524081" gradientTransform="matrix(-1 0 0 0.4912 0 0)" gradientUnits="userSpaceOnUse" r="23.635">
      <stop offset="0.7275" stop-color="#6D4C41" stop-opacity="0"/>
      <stop offset="1" stop-color="#6D4C41"/>
    </radialGradient>
    <radialGradient id="SVGID_6_" cx="57.384425" cy="-80.344843" gradientTransform="matrix(0.9057 0.4238 0.3144 -0.6719 0 0)" gradientUnits="userSpaceOnUse" r="6.9345">
      <stop offset="0.6628" stop-color="#6D4C41"/>
      <stop offset="1" stop-color="#6D4C41" stop-opacity="0"/>
    </radialGradient>
    <linearGradient id="SVGID_9_" gradientTransform="matrix(1 0 0 -1 0 0)" gradientUnits="userSpaceOnUse" x1="43.075" x2="43.075" y1="-97.944" y2="-136.655">
      <stop offset="3.200000e-03" stop-color="#FFFF00"/>
      <stop offset="0.6783" stop-color="#FFF200"/>
      <stop offset="1" stop-color="#FFEA00"/>
    </linearGradient>
    <linearGradient id="SVGID_11_" gradientTransform="matrix(1 0 0 -1 0 0)" gradientUnits="userSpaceOnUse" x1="84.92" x2="84.92" y1="-98.0418" y2="-136.6073">
      <stop offset="3.200000e-03" stop-color="#FFFF00"/>
      <stop offset="0.6783" stop-color="#FFF200"/>
      <stop offset="1" stop-color="#FFEA00"/>
    </linearGradient>
    <linearGradient id="SVGID_8_" gradientTransform="matrix(1 0 0 -1 0 0)" gradientUnits="userSpaceOnUse" x1="44.025" x2="44.025" y1="-98.1518" y2="-135.8708">
      <stop offset="3.200000e-03" stop-color="#FF9100"/>
      <stop offset="0.4399" stop-color="#FF8400"/>
      <stop offset="1" stop-color="#FF6D00"/>
    </linearGradient>
    <linearGradient id="SVGID_10_" gradientTransform="matrix(1 0 0 -1 0 0)" gradientUnits="userSpaceOnUse" x1="83.975" x2="83.975" y1="-98.1894" y2="-135.8534">
      <stop offset="3.200000e-03" stop-color="#FF9100"/>
      <stop offset="0.4399" stop-color="#FF8400"/>
      <stop offset="1" stop-color="#FF6D00"/>
    </linearGradient>
  </defs>
  <path id="hair_4_" d="M98.54,79.48 C97.26,77.18 98.78,74.85 101.38,71.98 C105.5,67.44 109.79,57.02 105.26,46.58 C105.28,46.52 104.38,44.78 104.4,44.72 L102.66,44.63 C102.1,44.55 83.06,44.51 63.99,44.51 C44.92,44.51 25.88,44.55 25.32,44.63 C25.32,44.63 22.7,46.52 22.73,46.58 C18.2,57.02 22.49,67.44 26.61,71.98 C29.22,74.85 30.73,77.18 29.45,79.48 C28.2,81.72 24.62,82.05 24.62,82.05 C24.62,82.05 25.39,84.35 27.35,85.59 C29.17,86.74 31.42,87.01 32.99,87.05 C32.99,87.05 38.97,95.8 55.04,95.8 L63.99,95.8 L72.94,95.8 C89.02,95.8 94.99,87.05 94.99,87.05 C96.56,87.01 98.81,86.74 100.63,85.59 C102.59,84.35 103.36,82.05 103.36,82.05 C103.36,82.05 99.78,81.72 98.54,79.48 Z" fill="#543930"/>
  <path d="M63.99,95.79 L63.99,86.09 L92.34,83.78 L94.98,87.04 C94.98,87.04 89,95.79 72.93,95.79 L63.99,95.79 Z" fill="url(#SVGID_1_)"/>
  <path d="M94.84,82.84 C90.48,76.26 99.8,73.82 99.8,73.82 C99.8,73.82 99.81,73.83 99.81,73.83 C98.23,75.9 97.53,77.7 98.52,79.49 C99.77,81.73 103.35,82.06 103.35,82.06 C103.35,82.06 98.59,86.49 94.84,82.84 Z" fill="url(#SVGID_2_)"/>
  <path d="M105.28,46.58 C109.7,56.69 105.62,67.24 101.62,71.73 C101.07,72.35 98.72,74.75 98.22,76.68 C98.22,76.68 88.58,63.37 85.68,55.66 C85.1,54.11 84.57,52.52 84.48,50.88 C84.41,49.65 84.58,48.2 85.27,47.16 C86.11,45.89 104.76,45.51 104.76,45.51 C104.76,45.52 105.28,46.58 105.28,46.58 Z" fill="url(#SVGID_3_)"/>
  <path d="M22.74,46.58 C18.32,56.69 22.4,67.24 26.4,71.73 C26.95,72.35 29.3,74.75 29.8,76.68 C29.8,76.68 39.44,63.37 42.34,55.66 C42.92,54.11 43.45,52.52 43.54,50.88 C43.61,49.65 43.44,48.2 42.75,47.16 C41.91,45.89 40.9,46.23 39.43,46.23 C36.64,46.23 24.45,45.52 23.5,45.52 C23.51,45.52 22.74,46.58 22.74,46.58 Z" fill="url(#SVGID_4_)"/>
  <path d="M64.03,95.79 L64.03,86.09 L35.68,83.78 L33.04,87.04 C33.04,87.04 39.02,95.79 55.09,95.79 L64.03,95.79 Z" fill="url(#SVGID_5_)"/>
  <path d="M33.18,82.84 C37.54,76.26 28.22,73.82 28.22,73.82 C28.22,73.82 28.21,73.83 28.21,73.83 C29.79,75.9 30.49,77.7 29.5,79.49 C28.25,81.73 24.67,82.06 24.67,82.06 C24.67,82.06 29.43,86.49 33.18,82.84 Z" fill="url(#SVGID_6_)"/>
  <path d="M116,123.96 L116,120.84 C116,104.06 89.65,95.75 64,95.78 C38.51,95.81 12,103.06 12,120.84 L12,123.96 L116,123.96 Z" fill="url(#SVGID_7_)"/>
  <path id="neck" d="M64,90.11 L54.92,90.11 L54.92,100.09 C54.92,104.6 58.62,108.26 63.18,108.26 L64.83,108.26 C69.39,108.26 73.09,104.6 73.09,100.09 L73.09,90.11 C73.08,90.11 64,90.11 64,90.11 Z" fill="#99674F"/>
  <path d="M58.5,123.96 L29.55,123.96 L29.55,101.22 C31.34,100.52 33.23,99.9 35.19,99.36 C38.08,98.54 41.13,97.87 44.29,97.35 C46.43,96.99 48.62,96.7 50.84,96.47 L58.5,123.96 Z" fill="url(#SVGID_8_)"/>
  <path d="M50.96,123.96 L36.29,123.96 L35.19,99.36 C38.08,98.54 41.13,97.87 44.29,97.35 L50.96,123.96 Z" fill="url(#SVGID_9_)"/>
  <path d="M98.45,101.52 L98.45,123.96 L69.5,123.96 L77.15,96.51 C79.36,96.75 81.55,97.07 83.68,97.45 C86.85,98.02 89.91,98.72 92.8,99.58 C94.77,100.16 96.66,100.81 98.45,101.52 Z" fill="url(#SVGID_10_)"/>
  <path d="M92.8,99.58 L91.71,123.96 L77.04,123.96 L83.68,97.45 C86.85,98.02 89.91,98.72 92.8,99.58 Z" fill="url(#SVGID_11_)"/>
  <path id="ears" d="M91.33,50.43 L83.96,50.43 L44.04,50.43 L36.67,50.43 C30.78,50.43 25.96,55.57 25.96,61.84 C25.96,68.11 30.78,73.25 36.67,73.25 L44.04,73.25 L83.95,73.25 L91.32,73.25 C97.21,73.25 102.03,68.11 102.03,61.84 C102.03,55.57 97.22,50.43 91.33,50.43 Z" fill="#99674F"/>
  <path id="head_2_" d="M64,11.11 C46.6,11.11 30.48,29.72 30.48,56.5 C30.48,83.14 47.09,96.31 64,96.31 C80.91,96.31 97.52,83.14 97.52,56.5 C97.52,29.72 81.4,11.11 64,11.11 Z" fill="#BA8D68"/>
  <path d="M53.33,58.81 A4.93 5.1 0 1 1 43.47,58.81 A4.93 5.1 0 1 1 53.33,58.81 Z" fill="#49362E"/>
  <path d="M84.53,58.81 A4.93 5.1 0 1 1 74.67,58.81 A4.93 5.1 0 1 1 84.53,58.81 Z" fill="#49362E"/>
  <path d="M55.64,49.82 C54.71,48.59 52.57,46.81 48.41,46.81 C44.25,46.81 42.1,48.6 41.18,49.82 C40.77,50.36 40.87,50.99 41.16,51.37 C41.42,51.72 42.2,52.05 43.06,51.76 C43.92,51.47 45.6,50.6 48.41,50.58 C51.22,50.6 52.9,51.47 53.76,51.76 C54.62,52.05 55.4,51.73 55.66,51.37 C55.94,50.99 56.05,50.36 55.64,49.82 Z" fill="#613E31"/>
  <path d="M86.83,49.82 C85.9,48.59 83.76,46.81 79.6,46.81 C75.44,46.81 73.29,48.6 72.37,49.82 C71.96,50.36 72.06,50.99 72.35,51.37 C72.61,51.72 73.39,52.05 74.25,51.76 C75.11,51.47 76.79,50.6 79.6,50.58 C82.41,50.6 84.09,51.47 84.95,51.76 C85.81,52.05 86.59,51.73 86.85,51.37 C87.13,50.99 87.24,50.36 86.83,49.82 Z" fill="#613E31"/>
  <path id="nose_2_" d="M67.86,68.06 C67.75,68.02 67.65,67.99 67.54,67.98 L60.46,67.98 C60.35,67.99 60.24,68.02 60.14,68.06 C59.5,68.32 59.15,68.98 59.45,69.69 C59.75,70.4 61.16,72.38 64,72.38 C66.84,72.38 68.25,70.39 68.55,69.69 C68.85,68.98 68.5,68.32 67.86,68.06 Z" fill="#99674F"/>
  <path id="mouth_2_" d="M72.42,76.14 C69.24,78.03 58.79,78.03 55.61,76.14 C53.78,75.05 51.91,76.72 52.67,78.38 C53.42,80.01 59.11,83.8 64.04,83.8 C68.97,83.8 74.59,80.01 75.34,78.38 C76.09,76.72 74.25,75.05 72.42,76.14 Z" fill="#5D4037"/>
  <path id="hair_1_" d="M64,11.07 C26.74,11.07 29.26,52.48 29.26,52.48 C28.8,60.49 30.29,65.42 31.08,67.41 C31.22,67.76 31.71,67.73 31.8,67.37 C32.79,63.4 36.16,49.57 35.83,47.16 C35.83,47.16 47.18,44.91 58,36.94 C60.2,35.32 62.59,33.94 65.13,32.93 C78.72,27.52 81.56,36.75 81.56,36.75 C81.56,36.75 90.98,34.94 93.82,48.02 C94.89,52.92 95.61,60.77 96.22,66.26 C96.26,66.65 96.79,66.73 96.94,66.37 C97.89,64.19 100.04,59.89 100.24,55.46 C100.93,40.68 92.18,11.07 64,11.07 Z" fill="#543930"/>
  <path id="XMLID_4_" d="M64.41,7.92 C17.65,7.92 21.17,54.35 21.17,54.35 C21.17,54.35 33.38,43.55 64.67,43.55 C95.96,43.55 106.77,53.35 106.77,53.35 C106.77,53.35 111.17,7.92 64.41,7.92 Z" fill="url(#XMLID_3_)"/>
  <path d="M74.72,42.15 L53.92,42.15 L53.92,9.05 C53.92,6.26 56.18,4 58.97,4 L69.67,4 C72.46,4 74.72,6.26 74.72,9.05 L74.72,42.15 Z" fill="url(#SVGID_12_)"/>
  <path id="XMLID_1_" d="M54.07,8.774 L54.07,31.22 C52.691,21.369 50.728,14.188 47.348,10.473 C49.421,9.772 51.658,9.198 54.07,8.774 Z" fill="#EDBF00" opacity="0.5"/>
  <path d="M74.76,8.76 C77.186,9.181 79.431,9.75 81.507,10.446 C78.112,14.153 76.143,21.345 74.76,31.22 Z" fill="#EDBF00" opacity="0.5"/>
  <path d="M109.53,50.99 C109.28,50.57 108.89,50.25 108.46,50 C90.36,39.58 64,39.93 64,39.93 C64,39.93 37.64,39.58 19.54,50 C19.1,50.25 18.72,50.57 18.47,50.99 C17.94,51.89 17.5,53.6 19.22,56.07 C19.22,56.07 30.17,45.22 64,44.54 C97.82,45.23 108.78,56.07 108.78,56.07 C110.5,53.6 110.06,51.89 109.53,50.99 Z" fill="#FFEA00"/>
</svg>
